X:1
T:Polska i D-dur
R:polska
Z:2007-09-25
B:Gutaltar nr 347
S:Efter Frans Hellstrm
O:Gotland
M:3/4
L:1/16
K:D
D2F2 A2d2 f2a2|a2ba g2ag f2a2|b4 e4 (dcBA)|d4 A4 (GFEF)|
D2G2 B2A2 F2A2|(dcdf) (edcB) A4|D2F2 A2d2 f2a2|(bgec) (c3d) d4:|
|:(g3f) (edef) g2e2|f2e2 d2B2 A4|B2A2 G2A2 B2d2|A4 (defg) a4|
b2g2 b2g2 b2d'2|a4 (defg) a3g|f2e2 d2B2 A2g2|(bgec) c3d d4:|
